public/Twitter.svg

<svg width="50" height="50" viewBox="0 0 50 50" fill="none" xmlns="http://www.w3.org/2000/svg">
<path d="M44.37 7.28999C44.37 7.56614 44.1461 7.78999 43.87 7.78999C43.5939 7.78999 43.37 7.56614 43.37 7.28999C43.37 7.01385 43.5939 6.78999 43.87 6.78999C44.1461 6.78999 44.37 7.01385 44.37 7.28999Z" fill="black" stroke="white"/>
<path d="M18.84 26.19C17.6297 25.7537 16.4958 25.1294 15.48 24.34C14.941 23.8644 14.5023 23.2859 14.1898 22.6385C13.8773 21.9912 13.6971 21.2879 13.66 20.57C13.66 19.99 13.46 17.07 14.44 17.14C14.6 17.14 14.74 17.29 14.84 17.41C15.0941 17.7144 15.3645 18.0048 15.65 18.28V18.28C16.8249 19.4159 18.2195 20.2998 19.7482 20.8776C21.2769 21.4554 22.9075 21.7148 24.54 21.64C24.3841 20.7259 24.4887 19.7864 24.8417 18.9289C25.1948 18.0715 25.782 17.3307 26.5363 16.7913C27.2906 16.252 28.1814 15.9358 29.107 15.8789C30.0325 15.8221 30.9554 16.0269 31.77 16.47C32.2559 16.808 32.7881 17.0741 33.35 17.26C33.7574 17.3251 34.1726 17.3251 34.58 17.26L37.58 16.92C36.5594 18.1131 35.6988 19.4342 35.02 20.85C34.5502 22.1926 34.2381 23.5853 34.09 25C33.784 26.5738 33.1707 28.0719 32.2853 29.4086C31.3999 30.7452 30.2598 31.8943 28.93 32.79C28.93 32.79 28.93 32.79 28.93 32.79C28.5531 33.044 28.1588 33.2713 27.75 33.47V33.47C27.1999 33.7785 26.6245 34.0395 26.03 34.25L25.48 34.44L24.87 34.61C22.0296 35.2477 19.0782 35.1997 16.26 34.47L15.09 34.2L13.72 33.82C15.4009 33.7228 17.0336 33.222 18.48 32.36C18.77 32.19 19.07 31.95 19.03 31.63C19.0095 31.5152 18.9651 31.406 18.8997 31.3095C18.8342 31.213 18.7491 31.1314 18.65 31.07C17.6076 30.1555 16.7076 29.0904 15.98 27.91" stroke="white" stroke-width="2" stroke-linecap="round" stroke-linejoin="round"/>
</svg>

<svg xmlns="http://www.w3.org/2000/svg" width="25.934" height="21.194" viewBox="0 0 25.934 21.194">
  <path id="Twitter" d="M18.84,26.19a12.241,12.241,0,0,1-3.36-1.85,5.4,5.4,0,0,1-1.82-3.77c0-.58-.2-3.5.78-3.43.16,0,.3.15.4.27a10.993,10.993,0,0,0,.81.87h0a12,12,0,0,0,8.89,3.36,4.94,4.94,0,0,1,7.23-5.17,6.149,6.149,0,0,0,1.58.79,3.9,3.9,0,0,0,1.23,0l3-.34a18.051,18.051,0,0,0-2.56,3.93A18.35,18.35,0,0,0,34.09,25a12.2,12.2,0,0,1-5.16,7.79h0a9.7,9.7,0,0,1-1.18.68h0a11.071,11.071,0,0,1-1.72.78l-.55.19-.61.17a18.33,18.33,0,0,1-8.61-.14l-1.17-.27-1.37-.38a10.48,10.48,0,0,0,4.76-1.46c.29-.17.59-.41.55-.73a.83.83,0,0,0-.38-.56,13.922,13.922,0,0,1-2.67-3.16" transform="translate(-12.646 -14.869)" fill="none" stroke="#fff" stroke-linecap="round" stroke-linejoin="round" stroke-width="2"/>
</svg>
